build/assets/images/svg/icons/product/buy.svg

<svg width="40" height="40" viewBox="0 0 40 40" fill="none" xmlns="http://www.w3.org/2000/svg">
<rect width="40" height="40" rx="4" fill="#FFED32"/>
<path fill-rule="evenodd" clip-rule="evenodd" d="M14.3088 12.3209C14.1383 12.3205 13.9739 12.3398 13.8178 12.3765C13.6037 11.9046 13.3209 11.4813 12.9992 11.1596C12.4533 10.6137 11.5923 10.3984 10.4004 10.3984V12.3184C11.1285 12.3184 11.5475 12.4232 11.6416 12.5173C12.0044 12.8801 12.3204 13.6174 12.3204 14.2384L12.33 14.3742L13.2707 20.9589C11.6967 21.0406 10.4774 22.2629 10.4016 23.7909L10.4004 24.7984C10.4933 26.3766 11.7086 27.5906 13.2259 27.6769L13.4438 27.6772C13.8389 28.7964 14.906 29.5984 16.1604 29.5984C17.4144 29.5984 18.4811 28.797 18.8765 27.6784H21.1243C21.5196 28.797 22.5864 29.5984 23.8404 29.5984C25.431 29.5984 26.7204 28.309 26.7204 26.7184C26.7204 25.1279 25.431 23.8384 23.8404 23.8384C22.5864 23.8384 21.5196 24.6399 21.1243 25.7584H18.8765C18.4811 24.6399 17.4144 23.8384 16.1604 23.8384C14.9064 23.8384 13.8396 24.6399 13.4443 25.7584H13.2804C12.7908 25.7291 12.3516 25.2903 12.3187 24.741L12.3204 23.8384C12.3463 23.3405 12.7824 22.9043 13.328 22.8773L15.2231 22.8777L15.2369 22.8784H24.9126L25.0543 22.8335C25.7822 22.6025 26.3648 22.0544 26.6407 21.3449L26.7419 21.1447L27.0705 20.4937C27.4104 19.8198 27.7504 19.1448 28.0816 18.4853C28.8931 16.8699 29.4034 15.8432 29.5164 15.5911C30.0968 14.2965 28.9211 13.3 27.7195 13.2788L14.3088 12.3209ZM24.5793 20.9615H15.309C15.2474 20.9443 15.2004 20.8921 15.1912 20.8271L14.2505 14.2422L27.5783 15.1966C27.3451 15.6722 26.9212 16.5216 26.3662 17.6265L26.3523 17.6542C26.0355 18.2849 25.696 18.959 25.3565 19.632L25.0283 20.2821L24.9039 20.5284L24.8571 20.6372C24.8069 20.7769 24.7074 20.8917 24.5793 20.9615ZM23.8404 27.67C24.3706 27.67 24.8004 27.2402 24.8004 26.71C24.8004 26.1798 24.3706 25.75 23.8404 25.75C23.3102 25.75 22.8804 26.1798 22.8804 26.71C22.8804 27.2402 23.3102 27.67 23.8404 27.67ZM17.1202 26.71C17.1202 27.2402 16.6904 27.67 16.1602 27.67C15.63 27.67 15.2002 27.2402 15.2002 26.71C15.2002 26.1798 15.63 25.75 16.1602 25.75C16.6904 25.75 17.1202 26.1798 17.1202 26.71Z" fill="#203686"/>
</svg>

<svg width="40" height="40" fill="none" xmlns="http://www.w3.org/2000/svg"><rect width="40" height="40" rx="4" fill="#FFED32"/><path fill-rule="evenodd" clip-rule="evenodd" d="M14.309 12.32c-.17 0-.335.02-.491.056a4.17 4.17 0 00-.819-1.216c-.546-.546-1.407-.762-2.599-.762v1.92c.729 0 1.147.105 1.242.2.362.362.678 1.1.678 1.72l.01.136.94 6.585c-1.573.082-2.793 1.304-2.868 2.832l-.002 1.007c.093 1.579 1.309 2.793 2.826 2.879h.218a2.881 2.881 0 005.432.001h2.248a2.881 2.881 0 100-1.92h-2.247a2.881 2.881 0 00-5.433 0h-.164c-.49-.029-.928-.468-.961-1.017l.001-.903c.026-.498.462-.934 1.008-.96h11.585l.141-.044a2.52 2.52 0 001.587-1.49l.1-.2.33-.65c.34-.674.68-1.35 1.01-2.009.812-1.615 1.322-2.642 1.435-2.894.58-1.294-.595-2.291-1.796-2.312l-13.411-.958zm10.27 8.642h-9.27a.163.163 0 01-.118-.135l-.94-6.585 13.327.955a334.94 334.94 0 01-1.212 2.43l-.014.027-.995 1.978-.329.65-.124.246-.047.11a.6.6 0 01-.278.323zm-.739 6.708a.96.96 0 100-1.92.96.96 0 000 1.92zm-6.72-.96a.96.96 0 11-1.92 0 .96.96 0 011.92 0z" fill="#203686"/></svg>
